public/images/kuri-dark.svg

<svg xmlns="http://www.w3.org/2000/svg" version="1.0" viewBox="0 0 2048 2048">
  <path fill="none" stroke="#fff" stroke-width="4" stroke-linejoin="round" stroke-linecap="round" d="M1021.6 776.6c-1.6.9-5.7 4-9 6.8-11.9 10-15.1 11.5-30.3 14.2-66.5 11.6-119.4 45.5-149.1 95.4-10.2 17.1-18.4 39-21.9 58.5-2.4 13.2-2.4 44.1 0 56 9.9 48.7 41.7 88.4 90.4 112.6l10.1 5.1-22.6 28.6c-12.4 15.8-26.5 33.6-31.4 39.7-4.8 6-9.1 12.1-9.6 13.5-.9 2.6 3.8 34.4 5.7 38.7.6 1.2 2.1 2.9 3.5 3.8 2.9 2 44.5 12.5 49.1 12.5 3.9 0 7.1-2.9 9.8-8.9 2.6-5.9 52.5-108.3 53.1-108.8.2-.2 7.8.5 16.7 1.6 24 3.1 50.2 4.2 68.2 2.9 14-.9 15.2-.9 16.4.8.7 1 6.8 11.9 13.5 24.3 40 74.3 46.3 85.9 48.4 88.8 2.7 3.5 5.6 4.4 28.7 8.4 17.7 3.1 16.4 4 29.9-19.7 5.9-10.4 10.9-20 11.3-21.4.7-3.3-.3-4.9-17.3-26.3-26.8-33.8-53.7-68.8-53.7-69.8 0-.5 3.5-2.5 7.8-4.3 20.6-9 38.2-21 54.2-37.1 17.2-17.1 26.6-31.3 35.3-53.2 6.6-16.8 10-31.9 11.4-51.6 2.6-34.3-3.5-61.7-19.6-89.1-13.3-22.6-36.9-46.2-63.7-63.6-21-13.7-56.2-28.5-79.4-33.5-18.4-4-23.6-6.5-36-17.4-3.3-2.9-6.9-5.9-8-6.6-3.4-2.3-8.7-2.6-11.9-.9m-87.5 83.9c3.9.8 11 3.3 15.7 5.5 7.2 3.4 9.9 5.4 17.6 13.3 10.3 10.3 14.3 17 17.6 29 10.4 37.7-14.7 78.8-53.7 88.2-11.2 2.7-26.4 1.8-36.8-2.3-19.6-7.7-33.5-22.4-40.2-42.7-2.4-7.2-2.7-9.5-2.7-22.5 0-13.4.2-15.1 2.8-21.8 3.7-10 8.6-18 15.3-25.3 11.1-12 23.4-18.8 39.8-22.3 4.8-.9 17.9-.5 24.6.9m188.1 25.6c26.9 4.2 48.4 22.2 57.5 48.4 2.5 7.2 2.8 9.3 2.8 21.5 0 11.4-.4 14.7-2.3 21-4.1 13-8.7 20.6-18.7 30.5-13.6 13.6-26.4 19.2-46.1 20.2-14 .7-23.1-1.2-35.2-7.2-15.3-7.7-26.5-20.1-33.2-36.8-4.3-10.8-5.3-17.3-4.7-31.2.4-10 1-13.4 3.4-20.2 3.9-10.9 8.5-18.2 16.3-26.2 15.8-16.3 37.6-23.5 60.2-20"/>
  <g fill="none#" stroke="#fff" stroke-width="4" stroke-linejoin="round" stroke-linecap="round">
    <path d="M857.3 908.2c-1.5 1.9-2.2 5.4-1.3 6.8.8 1.3 14.8 5 19 5 4.5 0 5.3 1.2 4 6.1-.7 2.3-1.2 8.1-1.1 12.8 0 14.4 4.8 26.1 13.8 34.1 6.6 5.8 10.4 7.3 19.3 7.4 9.8 0 16.9-3.3 25.4-11.8 7-7 11.2-14.7 13.6-24.9 1.7-6.9 1.8-7.2 4.6-7.1 1.6 0 7.5 1.1 13.1 2.4 11.3 2.6 13.3 2.2 13.3-3 0-4.8 8.8-2.6-99.3-24.6-12-2.4-22.2-4.4-22.7-4.4-.4 0-1.2.6-1.7 1.2Z"/>
    <path d="M1046 946.9c-1.5 3-1.2 5.9.8 7 1 .5 7.6 1.3 14.5 1.7l12.7.7v7.3c0 13.5 4 25.2 11.8 35.1 4.8 6 10.2 9.4 18.6 11.8 10.4 3 21.9-.6 30.5-9.4 7.9-8.1 14.1-22.5 14.1-32.7 0-8.3-.5-8 14.2-7.9 11.2 0 13.2-.2 14.1-1.7.8-1.2.7-2.3-.2-4.2-1.7-3.1-2-3.1-32.6-4.6-12.6-.6-36.9-1.9-54-3-40.4-2.5-43.1-2.5-44.5-.1Z"/>
  </g>
</svg>

<svg xmlns="http://www.w3.org/2000/svg" viewBox="0 0 768 768">
  <g transform="matrix(0.798337,0,0,0.898246,-445.471933,-532.659649)">
    <g transform="matrix(1.252604,0,0,1.113281,-244.919271,-91.667969)">
      <path fill="none" stroke="#fff" stroke-width="6" stroke-linejoin="round" stroke-linecap="round" d="M1021.6,776.6C1020,777.5 1015.9,780.6 1012.6,783.4C1000.7,793.4 997.5,794.9 982.3,797.6C915.8,809.2 862.9,843.1 833.2,893C823,910.1 814.8,932 811.3,951.5C808.9,964.7 808.9,995.6 811.3,1007.5C821.2,1056.2 853,1095.9 901.7,1120.1L911.8,1125.2L901.2,1137.8C888.8,1153.6 850.392,1205.111 849.2,1206C844.253,1209.69 848.037,1242.468 853.9,1245.7C854.5,1246.9 856.506,1248.096 857.4,1249.5C859.273,1252.44 892.481,1262.306 901.5,1260C905.405,1259.002 921.961,1250.703 924.3,1244.1C926.9,1238.2 968.8,1144.8 969.4,1144.3C969.6,1144.1 977.2,1144.8 986.1,1145.9C1010.1,1149 1036.3,1150.1 1054.3,1148.8C1068.3,1147.9 1069.5,1147.9 1070.7,1149.6C1071.096,1150.166 1078.149,1173.256 1093.207,1201.489C1104.761,1223.153 1123.497,1249.079 1132.6,1262.7C1134.003,1264.519 1163.71,1273.997 1181.418,1265.194C1197.79,1257.054 1202.308,1230.673 1202.5,1230C1202.885,1228.185 1184.366,1199.595 1164.923,1174.067C1149.017,1153.184 1131.5,1134.35 1131.5,1133.9C1131.5,1133.4 1135,1131.4 1139.3,1129.6C1159.9,1120.6 1177.5,1108.6 1193.5,1092.5C1210.7,1075.4 1220.1,1061.2 1228.8,1039.3C1235.4,1022.5 1238.8,1007.4 1240.2,987.7C1242.8,953.4 1236.7,926 1220.6,898.6C1207.3,876 1183.7,852.4 1156.9,835C1135.9,821.3 1100.7,806.5 1077.5,801.5C1059.1,797.5 1053.9,795 1041.5,784.1C1038.2,781.2 1034.6,778.2 1033.5,777.5C1030.1,775.2 1024.8,774.9 1021.6,776.6M934.1,860.5C938,861.3 945.1,863.8 949.8,866C957,869.4 959.7,871.4 967.4,879.3C977.7,889.6 981.7,896.3 985,908.3C995.4,946 970.3,987.1 931.3,996.5C920.1,999.2 904.9,998.3 894.5,994.2C874.9,986.5 861,971.8 854.3,951.5C851.9,944.3 851.6,942 851.6,929C851.6,915.6 851.8,913.9 854.4,907.2C858.1,897.2 863,889.2 869.7,881.9C880.8,869.9 893.1,863.1 909.5,859.6C914.3,858.7 927.4,859.1 934.1,860.5M1122.2,886.1C1149.1,890.3 1170.6,908.3 1179.7,934.5C1182.2,941.7 1182.5,943.8 1182.5,956C1182.5,967.4 1182.1,970.7 1180.2,977C1176.1,990 1171.5,997.6 1161.5,1007.5C1147.9,1021.1 1135.1,1026.7 1115.4,1027.7C1101.4,1028.4 1092.3,1026.5 1080.2,1020.5C1064.9,1012.8 1053.7,1000.4 1047,983.7C1042.7,972.9 1041.7,966.4 1042.3,952.5C1042.7,942.5 1043.3,939.1 1045.7,932.3C1049.6,921.4 1054.2,914.1 1062,906.1C1077.8,889.8 1099.6,882.6 1122.2,886.1"/>
    </g>
    <g transform="matrix(1.252604,0,0,1.113281,-140.953125,-67.175781)">
      <g transform="translate(-83,-22)">
        <path fill="none" stroke="#fff" stroke-width="6" stroke-linejoin="round" stroke-linecap="round" d="M857.3,908.2C855.8,910.1 855.1,913.6 856,915C856.8,916.3 870.8,920 875,920C879.5,920 880.3,921.2 879,926.1C878.3,928.4 877.8,934.2 877.9,938.9C877.9,953.3 882.7,965 891.7,973C898.3,978.8 902.1,980.3 911,980.4C920.8,980.4 927.9,977.1 936.4,968.6C943.4,961.6 947.6,953.9 950,943.7C951.7,936.8 951.8,936.5 954.6,936.6C956.2,936.6 962.1,937.7 967.7,939C979,941.6 981,941.2 981,936C981,931.2 989.8,933.4 881.7,911.4C869.7,909 859.5,907 859,907C858.6,907 857.8,907.6 857.3,908.2"/>
      </g>
      <g transform="translate(-83,-22)">
        <path fill="none" stroke="#fff" stroke-width="6" stroke-linejoin="round" stroke-linecap="round" d="M1046,946.9C1044.5,949.9 1044.8,952.8 1046.8,953.9C1047.8,954.4 1054.4,955.2 1061.3,955.6L1074,956.3L1074,963.6C1074,977.1 1078,988.8 1085.8,998.7C1090.6,1004.7 1096,1008.1 1104.4,1010.5C1114.8,1013.5 1126.3,1009.9 1134.9,1001.1C1142.8,993 1149,978.6 1149,968.4C1149,960.1 1148.5,960.4 1163.2,960.5C1174.4,960.5 1176.4,960.3 1177.3,958.8C1178.1,957.6 1178,956.5 1177.1,954.6C1175.4,951.5 1175.1,951.5 1144.5,950C1131.9,949.4 1107.6,948.1 1090.5,947C1050.1,944.5 1047.4,944.5 1046,946.9"/>
      </g>
    </g>
  </g>
</svg>
